X:1
T:Nichts ist es spat und frühe
T:2 - Aria (bass): Nichts ist es spat und frühe (G minor) 
T:Bach, Johann Sebastian
T:In allen meinen Taten, BWV 97
C:Bach, J.S.
%%score 1 2
L:1/8
Q:1/4=80
M:6/8
K:Bb
V:1 bass nm="Baritone"
V:2 bass nm="Bassoon\nVioloncello\nContibuo"
V:1
 z | z6 | z6 | z6 | z6 | z6 | z6 | z6 | z6 | z6 | z6 | z6 | z3 z z!mf! D | (B,^F,) G, (G,D,) E, | %14
w: ||||||||||||Nichts|ist * es spat * und|
 D3 C2 B, | (A,=E,) ^F, (F,^C,) D, | C3 B,2 A, | (G,D,) E, (C,B,) A, | D,3- D,2 z | z3 z z G, | %20
w: frü- he um|al- * le mei- * ne|Mü- he, mein|Sor- * gen ist * um-|sonst, _|mein|
 (G,3 ^F,2) A, | (A,3 G,2) B, | (B,A,) C (CD,) z | z6 | z3 z z D | (B,^F,) G, (G,D,) E, | %26
w: Sor- * gen|ist _ um-|sonst, * um- sonst, *||nichts|ist * es spat * und|
 D3 C2 B, | (A,=E,) ^F, (F,^C,) D, | C3 B,2 A, | (G,D,) E, (C,B,) A, | D,3- D,2 A, | %31
w: frü- he um|al- * le mei- * ne|Mü- he, mein|Sor- * gen ist * um-|sonst, _ mein|
 B,^F,G,- G,D,E,- | E,G,B,- B,DC- | CG,A,- A,=E,F,- | F,A,C- C E D | (DA,) B, E,D, C, | %36
w: Sor- * * * * *|||* * * * gen, mein|Sor- * gen ist * um-|
 (B,A,) F, C2 z | z z F, D3- | DC =B, CD E |{B,} A,2 F, C3- | CB, A, (B,C) D | G,2 E,{D,} C,2 B, | %42
w: sonst, * um- sonst,|mein Sor-|* * gen ist * um-|sonst, mein Sor-|* * gen ist * um-|sonst, um- sonst, nichts|
 (B,G,) A, (A,=E,) F, | E3 D2 G, | (G,D,) E, (E,B,,) C, | B,3 A,2 B, | C,E,D, E,3- | %47
w: ist * es spat * und|frü- he um|al- * le mei- * ne|Mü- he, mein|Sor- * * *|
 E,D, B, z C, A, | B,2 F, B,,2 z | z6 | z6 | z6 | z3 z z A, | (B,=E,) F, (F,D) B, | %54
w: * * gen, ist um-|sonst, um- sonst.||||Er|mag * mit mei- * nen|
{B,} C3 F,2 =B, | (C^F,) G, (G,E) C | (DCD) G,2 G, | G,3- G,2 C | (C3 =B,2) D | (D3 C2) B, | %60
w: Sa- chen nach|sei- * nem Wil- * len|ma- * * chen, ich|stells _ in|sei- * ne|Gunst, _ ich|
 _A,G, F, E,D, C, | =B,,2 _A, (G,3- | G,C,) F, (E,F,) D, | C,3- C,2 z | z6 | z6 | z6 | z3 z z E, | %68
w: stells * in sei- * ne|Gunst, ich stells|_ _ in sei- * ne|Gunst, _||||er|
{E,} D,2 C (=B,C) D | (F,D,E,) E,2 D, |{D,} C,2 B, A,B, C | (E,C,D,) D,2 D | D6- | D6- | %74
w: mags mit mei- * nen|Sa- * * chen nach|sei- nem Wil- * len|ma- * * chen, ich|stells|_|
 DC B, (A,B,) G, | (G,^F,) A, C3- | CB, A, (B,G,) ^F, | (G,A,) B, (A,C/B,/) A,/G,/ | %78
w: * * in sei- * ne|Gunst, * ich stells|_ _ in sei- * ne|Gunst, * in sei- * * ne *|
 (G,3 ^F,2) D, | (DC) B, (B,A,) G, | G,F,(E, E,) D, C, | (CB,) A, (A,G,) ^F, | ^F,G,A,- A, D, F, | %83
w: Gunst, _ er|mags * mit mei- * nen|Sa- * * * chen nach|sei- * nem Wil- * len|ma- * * * chen, ich|
 (G,C) B, (A,B,/A,/) (G,/^F,/) | G,3- G,2 z | z6 | z6 | z6 | z6 | z6 | z6 | z6 | z6 | z6 | z6 | %95
w: stells * in sei- * * ne *|Gunst. _|||||||||||
 z6 | !fermata!z6 |] %97
w: ||
V:2
 D | (B,^F,).G, (G,D,).E, | (D3 C2) B, | (A,=E,).^F, (F,^C,).D, | (C3 B,2) A, | %5
 (G,D,).E, (C,B,).A, | (D,,3 D,,2) ^F, | G,(.D,.D, .D,)B,/A,/G,/B,/ | A,(.D,.D, .D,)C/B,/A,/C/ | %9
 B,(.D,.D, .D,)D/C/B,/D/ | C(.D,.D, .D,)=E,/^F,/G,/A,/ | B,/A,/G,/A,/B,/C/ DC,D, | %12
 G,,B,,D, G,!p!B,D | G,(.D,.D, .D,)B,G, | A,(.D,.D, .D,)A,=E, | ^F,(.D,.D, .D,)A,F, | %16
 G,(.D,.D, .D,)DA, | B,2 G, E,2 C, | (C^F,)A, (A,D,)F, | G,(.D,.D, .D,)B,/A,/G,/B,/ | %20
 A,(.D,.D, .D,)C/B,/A,/C/ | B,(.D,.D, .D,)D/C/B,/D/ | C(.D,.D, .D,)=E,/^F,/G,/A,/ | %23
 B,/A,/G,/A,/B,/C/ DC,D, | G,,B,,D, G,B,,D, | G,,(.D,,.D,, .D,,)B,,G,, | %26
 A,,(.D,,.D,, .D,,)A,,=E,, | ^F,,(.D,,.D,, .D,,)A,,F,, | G,,(.D,,.D,, .D,,)D,A,, | %29
 B,,2 G,, E,2 C, | (C^F,).A, (A,D,).F, | (G,A,).B, (B,A,).G, | G,2 G,, G,,2 G, | %33
 (A,B,).C (CB,).A, | A,2 A,, A,,2 A, | (B,C)D (G,F,).E, | E3- EFE | (DA,).B, (B,^F,).G, | %38
 (F3 E2) D | (CG,).A, (A,=E,).F, | (E3 D2) C | (B,F,).G, (E,D).C | F,,3- F,,2 A,, | %43
 B,,(.F,,.F,, .F,,)D,/C,/B,,/D,/ | C,(.F,,.F,, .F,,)E,/D,/C,/E,/ | D,(.F,,.F,, .F,,)F,/E,/D,/F,/ | %46
 E,(.F,,.F,, .F,,)G,,/A,,/B,,/C,/ | D,/C,/B,,/C,/D,/E,/ F,E,,F,, | B,,3- B,,!f!C,/D,/=E,/^F,/ | %49
 G,(.D,.D, .D,)B,/A,/G,/B,/ | A,(.D,.D, .D,)=E,/^F,/G,/A,/ | B,(.G,.G, .G,)D/C/B,/D/ | %52
 C(.F,.F, .F,)!p! G,/A,/B,/C/ | D2 A, B,3- | B,A,G, A,CF, | E,2 =B,, C,2 _A,, | G,,3- G,,=A,,=B,, | %57
 C,(.G,,.G,, .G,,)E,/D,/C,/E,/ | D,(.G,,.G,, .G,,)F,/E,/D,/F,/ | E,(.G,,.G,, .G,,)G,/F,/=E,/G,/ | %60
 F,6- | F,(G,/F,/E,/D,/) E,/C,/D,/E,/F,/G,/ | _A,(B,/A,/G,/F,/) G,F,,G,, | %63
 C,,E,,G,, C,!f!D,/E,/F,/G,/ | (_A,=E,)F, (F,C,)D, | (C3 B,2) _A, | (G,D,).E, (E,=B,,).C, | %67
 (B,3 _A,2)!p! G, | (F,C,).D, (D,A,,).=B,, | (_A,3 G,2) F, | (E,=B,,).C, (C,G,,).A,, | %71
 (G,3 ^F,2) D, | G,(.D,.D, .D,)B,/A,/G,/B,/ | A,(.D,.D, .D,)C/B,/A,/C/ | B,(.D,.D, .D,)D/C/B,/D/ | %75
 C(.D,.D, .D,)=E,/^F,/G,/A,/ | B,/A,/G,/A,/B,/C/ DC,D, | E,,(.D,.D, .D,)G,C, | %78
 D,,(.C,.C, .C,)A,C, | (B,,^F,,).G,, (G,,D,,).E,, | (D,3 C,2) B, | (A,=E,).^F, (F,^C,).D, | %82
 (C3 B,2) A, | G,(F,/E,/D,/C,/) D,C,,D,, | G,,3- G,,2!f! D | (B,^F,).G, (G,D,).E, | (D3 C2) B, | %87
 (A,=E,).^F, (F,^C,).D, | (C3 B,2) A, | (G,D,).E, (C,B,).A, | D,,3- D,,2 ^F, | %91
 G,(.D,.D, .D,)B,/A,/G,/B,/ | A,(.D,.D, .D,)C/B,/A,/C/ | B,(.D,.D, .D,)D/C/B,/D/ | %94
 C(.D,.D, .D,)=E,/^F,/G,/A,/ | B,/A,/G,/A,/B,/C/ DC,D, | !fermata!G,,6 |] %97

